Hatter-kde/actions/22/format-currency.svg

<svg xmlns="http://www.w3.org/2000/svg" viewBox="0 0 22 22">
  <defs id="defs3051">
    <style type="text/css" id="current-color-scheme">
      .ColorScheme-Text {
        color:#363636;
      }
      </style>
  </defs>
 <path 
    style="fill:currentColor;fill-opacity:1;stroke:none" 
    d="M 9 2 L 9 4.1308594 C 8.0228267 4.272742 7.1906866 4.5299378 6.5371094 4.9316406 C 5.5265594 5.5465406 5.0214844 6.4897187 5.0214844 7.7617188 C 5.0169259 9.9570109 6.5789588 10.68039 9 11.345703 L 9 16.335938 C 7.8272793 16.236927 6.7551089 16.016504 5.6230469 15.533203 L 5 16.888672 C 5.56451 17.189972 6.3273025 17.450828 7.2890625 17.673828 C 7.8333381 17.796143 8.4002817 17.874405 9 17.927734 L 9 20 L 10 20 L 10 17.976562 C 10.170103 17.981099 10.31439 18 10.494141 18 C 10.657654 17.998701 10.830233 17.984699 11 17.976562 L 11 20 L 12 20 L 12 17.880859 C 13.996756 17.596007 15.979992 16.678603 15.958984 14.193359 C 15.889001 12.364266 14.755863 11.685849 12 10.716797 L 12 5.7636719 C 12.903264 5.8844157 14.002058 6.135949 15.224609 6.7460938 L 16 5.203125 C 15.44942 4.907625 14.168906 4.4367187 13.353516 4.2617188 C 12.920003 4.1691054 12.466998 4.1061138 12 4.0625 L 12 2 L 11 2 L 11 4.0136719 C 10.907791 4.0119134 10.821909 4 10.728516 4 C 10.471779 4 10.240718 4.0203437 10 4.0332031 L 10 2 L 9 2 z M 10.4375 5.6484375 C 10.588523 5.6492656 10.799836 5.6578869 11 5.6660156 L 11 10.367188 C 10.842551 10.314477 10.74464 10.274025 10.578125 10.21875 C 10.399423 10.174768 10.193204 10.110623 10 10.058594 L 10 5.6621094 C 10.145876 5.6557391 10.291583 5.648453 10.4375 5.6484375 z M 9 5.7597656 L 9 9.7558594 C 7.7730022 9.3214857 6.6429561 8.6646591 6.6757812 7.5664062 C 6.6162327 6.525104 7.6802294 5.9756239 9 5.7597656 z M 10 11.613281 C 10.183873 11.660073 10.329816 11.705387 10.521484 11.753906 C 10.682494 11.799725 10.838881 11.851255 11 11.898438 L 11 16.390625 C 10.850535 16.393712 10.688612 16.409414 10.548828 16.408203 C 10.35735 16.406423 10.184159 16.394213 10 16.388672 L 10 11.613281 z M 12 12.210938 C 13.28148 12.659476 14.319728 13.246286 14.296875 14.275391 C 14.257995 15.671085 13.165263 16.158285 12 16.324219 L 12 12.210938 z "
    class="ColorScheme-Text"
    />  
</svg>

<?xml version="1.0" encoding="UTF-8"?>
<svg viewBox="0 0 22 22" xmlns="http://www.w3.org/2000/svg">
 <defs id="defs3051">
  <style id="current-color-scheme" type="text/css">.ColorScheme-Text {
        color:#363636;
      }</style>
 </defs>
 <path class="ColorScheme-Text" d="m9 2v2.1309c-0.97717 0.14188-1.8093 0.39908-2.4629 0.80078-1.0106 0.6149-1.5156 1.5581-1.5156 2.8301-0.0045585 2.1953 1.5575 2.9187 3.9785 3.584v4.9902c-1.1727-0.099011-2.2449-0.31943-3.377-0.80274l-0.62305 1.3555c0.56451 0.3013 1.3273 0.56216 2.2891 0.78516 0.54428 0.12232 1.1112 0.20058 1.7109 0.25391v2.0723h1v-2.0234c0.1701 0.004537 0.31439 0.023438 0.49414 0.023438 0.16351-0.001299 0.33609-0.015301 0.50586-0.023438v2.0234h1v-2.1191c1.9968-0.28485 3.98-1.2023 3.959-3.6875-0.069983-1.8291-1.2031-2.5075-3.959-3.4766v-4.9531c0.90326 0.12074 2.0021 0.37228 3.2246 0.98242l0.77539-1.543c-0.55058-0.2955-1.8311-0.76641-2.6465-0.94141-0.43351-0.092613-0.88652-0.1556-1.3535-0.19922v-2.0625h-1v2.0137c-0.092209-0.0017585-0.17809-0.013672-0.27148-0.013672-0.25674 0-0.4878 0.020344-0.72852 0.033203v-2.0332h-1zm1.4375 3.6484c0.15102 8.281e-4 0.36234 0.0094494 0.5625 0.017578v4.7012c-0.15745-0.052711-0.25536-0.093163-0.42188-0.14844-0.1787-0.043982-0.38492-0.10813-0.57812-0.16016v-4.3965c0.14588-0.0063703 0.29158-0.013656 0.4375-0.013672zm-1.4375 0.11133v3.9961c-1.227-0.43437-2.357-1.0912-2.3242-2.1895-0.059548-1.0413 1.0044-1.5908 2.3242-1.8066zm1 5.8535c0.18387 0.046792 0.32982 0.092106 0.52148 0.14062 0.16101 0.045819 0.3174 0.097349 0.47852 0.14453v4.4922c-0.14946 0.003087-0.31139 0.018789-0.45117 0.017578-0.19148-0.00178-0.36467-0.01399-0.54883-0.019531v-4.7754zm2 0.59766c1.2815 0.44854 2.3197 1.0353 2.2969 2.0645-0.03888 1.3957-1.1316 1.8829-2.2969 2.0488v-4.1133z" fill="currentColor"/>
</svg>
